!!!OTL: ES REGNET AUF DER BRUECKE
!!!ARE: Europa, Mitteleuropa, Deutschland, Niederrhein
!!!SCT: K2172A
!!!YEM: Copyright 1995, estate of Helmut Schaffrath.
**kern
*ICvox
*Ivox
*M2/4
*k[b-]
*F:
{8c
=1
8f
8g
8a
8b-
=2
4cc
8dd}
{8b-
=3
4a
4g
=4
4f
8r}
{8c
=5
8f
8g
8a
8b-
=6
4cc
8dd}
{8b-
=7
4a
4g
=8
4f
4r}
=9
{8cc
8cc
8cc
8cc
=10
8dd
8dd
4dd}
=11
{8b-
8b-
8b-
8b-
=12
8cc
8cc
4cc}
=13
{8a
8a
8a
8a
=14
4cc
8b-}
{8b-
=15
4a
4g
=16
4f
8r}
==
!!!AGN: Kinder - Lied, Reigen, Tanz - Spiel, Brautwerbung
!!!ONB: ESAC (Essen Associative Code) Database: KINDER
!!!AMT: simple duple
!!!AIN: vox
!!!EED: Helmut Schaffrath
!!!EEV: 1.0
*-
